bernoullicharts/pow_x_4_5__bound.svg

<?xml version="1.0" encoding="utf-8" standalone="no"?>
<!DOCTYPE svg PUBLIC "-//W3C//DTD SVG 1.1//EN"
  "http://www.w3.org/Graphics/SVG/1.1/DTD/svg11.dtd">
<!-- Created with matplotlib (https://matplotlib.org/) -->
<svg height="345.6pt" version="1.1" viewBox="0 0 460.8 345.6" width="460.8pt" xmlns="http://www.w3.org/2000/svg" xmlns:xlink="http://www.w3.org/1999/xlink">
 <defs>
  <style type="text/css">
*{stroke-linecap:butt;stroke-linejoin:round;}
  </style>
 </defs>
 <g id="figure_1">
  <g id="patch_1">
   <path d="M 0 345.6 
L 460.8 345.6 
L 460.8 0 
L 0 0 
z
" style="fill:#ffffff;"/>
  </g>
  <g id="axes_1">
   <g id="patch_2">
    <path d="M 57.6 307.584 
L 414.72 307.584 
L 414.72 41.472 
L 57.6 41.472 
z
" style="fill:#ffffff;"/>
   </g>
   <g id="matplotlib.axis_1">
    <g id="xtick_1">
     <g id="line2d_1">
      <defs>
       <path d="M 0 0 
L 0 3.5 
" id="m5b4ce12429" style="stroke:#000000;stroke-width:0.8;"/>
      </defs>
      <g>
       <use style="stroke:#000000;stroke-width:0.8;" x="73.800255" xlink:href="#m5b4ce12429" y="307.584"/>
      </g>
     </g>
     <g id="text_1">
      <text style="font-family:DejaVu Sans;font-size:10px;font-style:normal;font-weight:normal;text-anchor:middle;" transform="rotate(-0, 73.800255, 322.182437)" x="73.800255" y="322.182437">0.0</text>
     </g>
    </g>
    <g id="xtick_2">
     <g id="line2d_2">
      <g>
       <use style="stroke:#000000;stroke-width:0.8;" x="138.744153" xlink:href="#m5b4ce12429" y="307.584"/>
      </g>
     </g>
     <g id="text_2">
      <text style="font-family:DejaVu Sans;font-size:10px;font-style:normal;font-weight:normal;text-anchor:middle;" transform="rotate(-0, 138.744153, 322.182437)" x="138.744153" y="322.182437">0.2</text>
     </g>
    </g>
    <g id="xtick_3">
     <g id="line2d_3">
      <g>
       <use style="stroke:#000000;stroke-width:0.8;" x="203.688051" xlink:href="#m5b4ce12429" y="307.584"/>
      </g>
     </g>
     <g id="text_3">
      <text style="font-family:DejaVu Sans;font-size:10px;font-style:normal;font-weight:normal;text-anchor:middle;" transform="rotate(-0, 203.688051, 322.182437)" x="203.688051" y="322.182437">0.4</text>
     </g>
    </g>
    <g id="xtick_4">
     <g id="line2d_4">
      <g>
       <use style="stroke:#000000;stroke-width:0.8;" x="268.631949" xlink:href="#m5b4ce12429" y="307.584"/>
      </g>
     </g>
     <g id="text_4">
      <text style="font-family:DejaVu Sans;font-size:10px;font-style:normal;font-weight:normal;text-anchor:middle;" transform="rotate(-0, 268.631949, 322.182437)" x="268.631949" y="322.182437">0.6</text>
     </g>
    </g>
    <g id="xtick_5">
     <g id="line2d_5">
      <g>
       <use style="stroke:#000000;stroke-width:0.8;" x="333.575847" xlink:href="#m5b4ce12429" y="307.584"/>
      </g>
     </g>
     <g id="text_5">
      <text style="font-family:DejaVu Sans;font-size:10px;font-style:normal;font-weight:normal;text-anchor:middle;" transform="rotate(-0, 333.575847, 322.182437)" x="333.575847" y="322.182437">0.8</text>
     </g>
    </g>
    <g id="xtick_6">
     <g id="line2d_6">
      <g>
       <use style="stroke:#000000;stroke-width:0.8;" x="398.519745" xlink:href="#m5b4ce12429" y="307.584"/>
      </g>
     </g>
     <g id="text_6">
      <text style="font-family:DejaVu Sans;font-size:10px;font-style:normal;font-weight:normal;text-anchor:middle;" transform="rotate(-0, 398.519745, 322.182437)" x="398.519745" y="322.182437">1.0</text>
     </g>
    </g>
    <g id="text_7">
     <text style="font-family:DejaVu Sans;font-size:10px;font-style:normal;font-weight:normal;text-anchor:middle;" transform="rotate(-0, 236.16, 335.860562)" x="236.16" y="335.860562">Input Coin's Heads Probability (λ)</text>
    </g>
   </g>
   <g id="matplotlib.axis_2">
    <g id="ytick_1">
     <g id="line2d_7">
      <defs>
       <path d="M 0 0 
L -3.5 0 
" id="m7c1f41fd88" style="stroke:#000000;stroke-width:0.8;"/>
      </defs>
      <g>
       <use style="stroke:#000000;stroke-width:0.8;" x="57.6" xlink:href="#m7c1f41fd88" y="263.684503"/>
      </g>
     </g>
     <g id="text_8">
      <text style="font-family:DejaVu Sans;font-size:10px;font-style:normal;font-weight:normal;text-anchor:end;" transform="rotate(-0, 50.6, 267.483722)" x="50.6" y="267.483722">2</text>
     </g>
    </g>
    <g id="ytick_2">
     <g id="line2d_8">
      <g>
       <use style="stroke:#000000;stroke-width:0.8;" x="57.6" xlink:href="#m7c1f41fd88" y="210.678322"/>
      </g>
     </g>
     <g id="text_9">
      <text style="font-family:DejaVu Sans;font-size:10px;font-style:normal;font-weight:normal;text-anchor:end;" transform="rotate(-0, 50.6, 214.477541)" x="50.6" y="214.477541">4</text>
     </g>
    </g>
    <g id="ytick_3">
     <g id="line2d_9">
      <g>
       <use style="stroke:#000000;stroke-width:0.8;" x="57.6" xlink:href="#m7c1f41fd88" y="157.67214"/>
      </g>
     </g>
     <g id="text_10">
      <text style="font-family:DejaVu Sans;font-size:10px;font-style:normal;font-weight:normal;text-anchor:end;" transform="rotate(-0, 50.6, 161.471359)" x="50.6" y="161.471359">6</text>
     </g>
    </g>
    <g id="ytick_4">
     <g id="line2d_10">
      <g>
       <use style="stroke:#000000;stroke-width:0.8;" x="57.6" xlink:href="#m7c1f41fd88" y="104.665959"/>
      </g>
     </g>
     <g id="text_11">
      <text style="font-family:DejaVu Sans;font-size:10px;font-style:normal;font-weight:normal;text-anchor:end;" transform="rotate(-0, 50.6, 108.465178)" x="50.6" y="108.465178">8</text>
     </g>
    </g>
    <g id="ytick_5">
     <g id="line2d_11">
      <g>
       <use style="stroke:#000000;stroke-width:0.8;" x="57.6" xlink:href="#m7c1f41fd88" y="51.659777"/>
      </g>
     </g>
     <g id="text_12">
      <text style="font-family:DejaVu Sans;font-size:10px;font-style:normal;font-weight:normal;text-anchor:end;" transform="rotate(-0, 50.6, 55.458996)" x="50.6" y="55.458996">10</text>
     </g>
    </g>
    <g id="text_13">
     <text style="font-family:DejaVu Sans;font-size:10px;font-style:normal;font-weight:normal;text-anchor:middle;" transform="rotate(-90, 31.795312, 174.528)" x="31.795312" y="174.528">Coin Flips Needed</text>
    </g>
   </g>
   <g id="line2d_12">
    <path clip-path="url(#pe1c885666f)" d="M 73.832727 189.891868 
L 77.112066 273.584215 
L 80.391405 278.781998 
L 83.670744 281.461714 
L 86.950083 283.210127 
L 90.229421 284.482218 
L 93.50876 285.468674 
L 96.788099 286.26649 
L 100.067438 286.931328 
L 103.346777 287.497892 
L 106.626116 287.989184 
L 109.905455 288.421178 
L 113.184793 288.805385 
L 116.464132 289.150357 
L 119.743471 289.462605 
L 123.02281 289.747193 
L 126.302149 290.008133 
L 129.581488 290.24865 
L 132.860826 290.471374 
L 136.140165 290.678475 
L 139.419504 290.871763 
L 142.698843 291.052763 
L 145.978182 291.222769 
L 149.257521 291.382887 
L 152.53686 291.534074 
L 155.816198 291.677157 
L 159.095537 291.812858 
L 162.374876 291.941811 
L 165.654215 292.064576 
L 168.933554 292.181646 
L 172.212893 292.293464 
L 175.492231 292.40042 
L 178.77157 292.502869 
L 182.050909 292.601128 
L 185.330248 292.695482 
L 188.609587 292.78619 
L 191.888926 292.873489 
L 195.168264 292.957592 
L 198.447603 293.038695 
L 201.726942 293.116977 
L 205.006281 293.192601 
L 208.28562 293.26572 
L 211.564959 293.33647 
L 214.844298 293.404982 
L 218.123636 293.471373 
L 221.402975 293.535753 
L 224.682314 293.598224 
L 227.961653 293.658881 
L 231.240992 293.717812 
L 234.520331 293.775098 
L 237.799669 293.830818 
L 241.079008 293.885042 
L 244.358347 293.937838 
L 247.637686 293.989268 
L 250.917025 294.039393 
L 254.196364 294.088266 
L 257.475702 294.135941 
L 260.755041 294.182466 
L 264.03438 294.227889 
L 267.313719 294.272252 
L 270.593058 294.315597 
L 273.872397 294.357964 
L 277.151736 294.399388 
L 280.431074 294.439906 
L 283.710413 294.479549 
L 286.989752 294.518351 
L 290.269091 294.556341 
L 293.54843 294.593546 
L 296.827769 294.629995 
L 300.107107 294.665713 
L 303.386446 294.700724 
L 306.665785 294.735052 
L 309.945124 294.768719 
L 313.224463 294.801747 
L 316.503802 294.834155 
L 319.78314 294.865964 
L 323.062479 294.897191 
L 326.341818 294.927854 
L 329.621157 294.957971 
L 332.900496 294.987557 
L 336.179835 295.016629 
L 339.459174 295.045201 
L 342.738512 295.073288 
L 346.017851 295.100903 
L 349.29719 295.128059 
L 352.576529 295.15477 
L 355.855868 295.181047 
L 359.135207 295.206903 
L 362.414545 295.232348 
L 365.693884 295.257394 
L 368.973223 295.28205 
L 372.252562 295.306327 
L 375.531901 295.330236 
L 378.81124 295.353784 
L 382.090579 295.376981 
L 385.369917 295.399837 
L 388.649256 295.422358 
L 391.928595 295.444554 
L 395.207934 295.466432 
L 398.487273 295.488 
" style="fill:none;stroke:#1f77b4;stroke-linecap:square;stroke-width:1.5;"/>
   </g>
   <g id="line2d_13">
    <path clip-path="url(#pe1c885666f)" d="M 73.832727 53.568 
L 77.112066 246.775531 
L 80.391405 263.631497 
L 83.670744 253.719341 
L 86.950083 268.349047 
L 90.229421 269.462177 
L 93.50876 269.886226 
L 96.788099 270.893344 
L 100.067438 275.928931 
L 103.346777 277.46611 
L 106.626116 271.688437 
L 109.905455 278.844271 
L 113.184793 273.967702 
L 116.464132 278.473228 
L 119.743471 272.960585 
L 123.02281 278.367215 
L 126.302149 280.38145 
L 129.581488 280.169426 
L 132.860826 278.738259 
L 136.140165 278.791265 
L 139.419504 281.49458 
L 142.698843 280.487463 
L 145.978182 282.395685 
L 149.257521 282.342679 
L 152.53686 282.077648 
L 155.816198 281.865623 
L 159.095537 282.766729 
L 162.374876 281.441574 
L 165.654215 281.971636 
L 168.933554 283.455809 
L 172.212893 283.561821 
L 175.492231 282.342679 
L 178.77157 283.826852 
L 182.050909 281.812617 
L 185.330248 284.038877 
L 188.609587 284.621945 
L 191.888926 284.886976 
L 195.168264 285.099 
L 198.447603 284.727957 
L 201.726942 284.727957 
L 205.006281 284.780963 
L 208.28562 285.258019 
L 211.564959 286.901211 
L 214.844298 284.780963 
L 218.123636 285.629062 
L 221.402975 286.954217 
L 224.682314 284.939982 
L 227.961653 286.265136 
L 231.240992 287.060229 
L 234.520331 287.219248 
L 237.799669 286.265136 
L 241.079008 285.576056 
L 244.358347 286.63618 
L 247.637686 286.265136 
L 250.917025 286.265136 
L 254.196364 287.32526 
L 257.475702 286.21213 
L 260.755041 287.74931 
L 264.03438 286.901211 
L 267.313719 287.855322 
L 270.593058 287.219248 
L 273.872397 288.173359 
L 277.151736 287.272254 
L 280.431074 287.802316 
L 283.710413 287.855322 
L 286.989752 287.802316 
L 290.269091 287.590291 
L 293.54843 288.226365 
L 296.827769 287.908328 
L 300.107107 288.385384 
L 303.386446 288.43839 
L 306.665785 287.74931 
L 309.945124 288.120353 
L 313.224463 289.445507 
L 316.503802 288.597408 
L 319.78314 288.491396 
L 323.062479 288.226365 
L 326.341818 288.491396 
L 329.621157 288.915446 
L 332.900496 288.43839 
L 336.179835 289.074464 
L 339.459174 289.286489 
L 342.738512 288.809433 
L 346.017851 289.445507 
L 349.29719 289.180476 
L 352.576529 289.074464 
L 355.855868 289.445507 
L 359.135207 289.445507 
L 362.414545 289.816551 
L 365.693884 289.498514 
L 368.973223 289.657532 
L 372.252562 289.869557 
L 375.531901 289.710538 
L 378.81124 289.816551 
L 382.090579 290.134588 
L 385.369917 289.922563 
L 388.649256 290.028575 
L 391.928595 289.975569 
L 395.207934 290.187594 
L 398.487273 290.187594 
" style="fill:none;stroke:#ff7f0e;stroke-linecap:square;stroke-width:1.5;"/>
   </g>
   <g id="patch_3">
    <path d="M 57.6 307.584 
L 57.6 41.472 
" style="fill:none;stroke:#000000;stroke-linecap:square;stroke-linejoin:miter;stroke-width:0.8;"/>
   </g>
   <g id="patch_4">
    <path d="M 414.72 307.584 
L 414.72 41.472 
" style="fill:none;stroke:#000000;stroke-linecap:square;stroke-linejoin:miter;stroke-width:0.8;"/>
   </g>
   <g id="patch_5">
    <path d="M 57.6 307.584 
L 414.72 307.584 
" style="fill:none;stroke:#000000;stroke-linecap:square;stroke-linejoin:miter;stroke-width:0.8;"/>
   </g>
   <g id="patch_6">
    <path d="M 57.6 41.472 
L 414.72 41.472 
" style="fill:none;stroke:#000000;stroke-linecap:square;stroke-linejoin:miter;stroke-width:0.8;"/>
   </g>
   <g id="text_14">
    <text style="font-family:DejaVu Sans;font-size:12px;font-style:normal;font-weight:normal;text-anchor:middle;" transform="rotate(-0, 236.16, 35.472)" x="236.16" y="35.472">Coin Flips for pow(x,4/5)</text>
   </g>
   <g id="legend_1">
    <g id="patch_7">
     <path d="M 219.784062 78.82825 
L 407.72 78.82825 
Q 409.72 78.82825 409.72 76.82825 
L 409.72 48.472 
Q 409.72 46.472 407.72 46.472 
L 219.784062 46.472 
Q 217.784062 46.472 217.784062 48.472 
L 217.784062 76.82825 
Q 217.784062 78.82825 219.784062 78.82825 
z
" style="fill:#ffffff;opacity:0.8;stroke:#cccccc;stroke-linejoin:miter;"/>
    </g>
    <g id="line2d_14">
     <path d="M 221.784062 54.570437 
L 241.784062 54.570437 
" style="fill:none;stroke:#1f77b4;stroke-linecap:square;stroke-width:1.5;"/>
    </g>
    <g id="line2d_15"/>
    <g id="text_15">
     <text style="font-family:DejaVu Sans;font-size:10px;font-style:normal;font-weight:normal;text-anchor:start;" transform="rotate(-0, 249.784062, 58.070437)" x="249.784062" y="58.070437">Coin Flip Lower Bound (Mendo)</text>
    </g>
    <g id="line2d_16">
     <path d="M 221.784062 69.248562 
L 241.784062 69.248562 
" style="fill:none;stroke:#ff7f0e;stroke-linecap:square;stroke-width:1.5;"/>
    </g>
    <g id="line2d_17"/>
    <g id="text_16">
     <text style="font-family:DejaVu Sans;font-size:10px;font-style:normal;font-weight:normal;text-anchor:start;" transform="rotate(-0, 249.784062, 72.748562)" x="249.784062" y="72.748562">Avg. Coins Flipped pow(x,4/5)</text>
    </g>
   </g>
  </g>
 </g>
 <defs>
  <clipPath id="pe1c885666f">
   <rect height="266.112" width="357.12" x="57.6" y="41.472"/>
  </clipPath>
 </defs>
</svg>

<svg height="460.8" viewBox="0 0 460.8 345.6" width="614.4" xmlns="http://www.w3.org/2000/svg" xmlns:xlink="http://www.w3.org/1999/xlink"><defs><style>*{stroke-linecap:butt;stroke-linejoin:round}</style></defs><g id="figure_1"><path d="M0 345.6h460.8V0H0z" fill="#fff" id="patch_1"/><g id="axes_1"><path d="M57.6 307.584h357.12V41.472H57.6z" fill="#fff" id="patch_2"/><g id="matplotlib.axis_1"><g id="xtick_1"><g id="line2d_1"><defs><path d="M0 0v3.5" id="m5b4ce12429" stroke="#000" stroke-width=".8"/></defs><use x="73.8" xlink:href="#m5b4ce12429" y="307.584" stroke="#000" stroke-width=".8"/></g><text x="73.8" y="322.182" font-family="DejaVu Sans" font-size="10" font-weight="400" text-anchor="middle" id="text_1">0.0</text></g><g id="xtick_2"><use x="138.744" xlink:href="#m5b4ce12429" y="307.584" stroke="#000" stroke-width=".8" id="line2d_2"/><text x="138.744" y="322.182" font-family="DejaVu Sans" font-size="10" font-weight="400" text-anchor="middle" id="text_2">0.2</text></g><g id="xtick_3"><use x="203.688" xlink:href="#m5b4ce12429" y="307.584" stroke="#000" stroke-width=".8" id="line2d_3"/><text x="203.688" y="322.182" font-family="DejaVu Sans" font-size="10" font-weight="400" text-anchor="middle" id="text_3">0.4</text></g><g id="xtick_4"><use x="268.632" xlink:href="#m5b4ce12429" y="307.584" stroke="#000" stroke-width=".8" id="line2d_4"/><text x="268.632" y="322.182" font-family="DejaVu Sans" font-size="10" font-weight="400" text-anchor="middle" id="text_4">0.6</text></g><g id="xtick_5"><use x="333.576" xlink:href="#m5b4ce12429" y="307.584" stroke="#000" stroke-width=".8" id="line2d_5"/><text x="333.576" y="322.182" font-family="DejaVu Sans" font-size="10" font-weight="400" text-anchor="middle" id="text_5">0.8</text></g><g id="xtick_6"><use x="398.52" xlink:href="#m5b4ce12429" y="307.584" stroke="#000" stroke-width=".8" id="line2d_6"/><text x="398.52" y="322.182" font-family="DejaVu Sans" font-size="10" font-weight="400" text-anchor="middle" id="text_6">1.0</text></g><text x="236.16" y="335.861" font-family="DejaVu Sans" font-size="10" font-weight="400" text-anchor="middle" id="text_7">Input Coin&apos;s Heads Probability (λ)</text></g><g id="matplotlib.axis_2"><g id="ytick_1"><g id="line2d_7"><defs><path d="M0 0h-3.5" id="m7c1f41fd88" stroke="#000" stroke-width=".8"/></defs><use x="57.6" xlink:href="#m7c1f41fd88" y="263.685" stroke="#000" stroke-width=".8"/></g><text x="50.6" y="267.484" font-family="DejaVu Sans" font-size="10" font-weight="400" text-anchor="end" id="text_8">2</text></g><g id="ytick_2"><use x="57.6" xlink:href="#m7c1f41fd88" y="210.678" stroke="#000" stroke-width=".8" id="line2d_8"/><text x="50.6" y="214.478" font-family="DejaVu Sans" font-size="10" font-weight="400" text-anchor="end" id="text_9">4</text></g><g id="ytick_3"><use x="57.6" xlink:href="#m7c1f41fd88" y="157.672" stroke="#000" stroke-width=".8" id="line2d_9"/><text x="50.6" y="161.471" font-family="DejaVu Sans" font-size="10" font-weight="400" text-anchor="end" id="text_10">6</text></g><g id="ytick_4"><use x="57.6" xlink:href="#m7c1f41fd88" y="104.666" stroke="#000" stroke-width=".8" id="line2d_10"/><text x="50.6" y="108.465" font-family="DejaVu Sans" font-size="10" font-weight="400" text-anchor="end" id="text_11">8</text></g><g id="ytick_5"><use x="57.6" xlink:href="#m7c1f41fd88" y="51.66" stroke="#000" stroke-width=".8" id="line2d_11"/><text x="50.6" y="55.459" font-family="DejaVu Sans" font-size="10" font-weight="400" text-anchor="end" id="text_12">10</text></g><text transform="rotate(-90 31.795 174.528)" x="31.795" y="174.528" font-family="DejaVu Sans" font-size="10" font-weight="400" text-anchor="middle" id="text_13">Coin Flips Needed</text></g><path clip-path="url(#pe1c885666f)" d="M73.833 189.892l3.28 83.692 3.278 5.198 3.28 2.68 3.28 1.748 3.278 1.272 3.28.987 3.28.797 3.278.665 3.28.567 3.28.491 3.278.432 3.28.384 3.28.345 3.278.313 3.28.284 3.28.261 3.278.24 3.28.223 3.28.207 3.279.194 3.279.18 3.28.17 3.279.16 3.279.152 3.28.143 3.279.136 3.279.129 3.28.123 3.279.117 3.279.111 3.28.107 3.279.103 3.279.098 3.28.094 3.279.091 3.279.087 3.28.085 3.279.08 3.279.079 3.28.076 3.279.073 3.279.07 3.28.069 3.279.066 3.279.065 3.28.062 3.279.06 3.279.06 3.28.057 3.279.056 3.279.054 3.28.053 3.279.051 3.279.05 3.28.05 3.279.047 3.279.046 3.28.046 3.279.044 3.28.044 3.278.042 3.28.041 3.28.04 3.278.04 3.28.04 3.28.037 3.278.038 3.28.036 3.28.036 3.278.035 3.28.034 3.28.034 3.278.033 3.28.032 3.28.032 3.278.031 3.28.03 3.28.031 3.278.03 3.28.029 3.28.028 3.279.028 3.279.028 3.28.027 3.279.027 3.279.026 3.28.026 3.279.025 3.279.025 3.28.025 3.279.024 3.279.024 3.28.024 3.279.023 3.279.023 3.28.022 3.279.023 3.279.021 3.28.022" fill="none" stroke="#1f77b4" stroke-linecap="square" stroke-width="1.5" id="line2d_12"/><path clip-path="url(#pe1c885666f)" d="M73.833 53.568l3.28 193.208 3.278 16.855 3.28-9.912 3.28 14.63 3.278 1.113 3.28.424 3.28 1.007 3.278 5.036 3.28 1.537 3.28-5.778 3.278 7.156 3.28-4.876 3.28 4.505 3.278-5.512 3.28 5.406 3.28 2.014 3.278-.212 3.28-1.43 3.28.052 3.279 2.704 3.279-1.008 3.28 1.909 3.279-.053 3.279-.265 3.28-.212 3.279.9 3.279-1.324 3.28.53 3.279 1.484 3.279.106 3.28-1.22 3.279 1.485 3.279-2.014 3.28 2.226 3.279.583 3.279.265 3.28.212 3.279-.371h3.279l3.28.053 3.279.477 3.279 1.643 3.28-2.12 3.279.848 3.279 1.325 3.28-2.014 3.279 1.325 3.279.795 3.28.16 3.279-.955 3.279-.689 3.28 1.06 3.279-.37h3.279l3.28 1.06 3.279-1.114 3.279 1.537 3.28-.848 3.279.954 3.28-.636 3.278.954 3.28-.9 3.28.53 3.278.052 3.28-.053 3.28-.212 3.278.636 3.28-.318 3.28.477 3.278.053 3.28-.689 3.28.371 3.278 1.326 3.28-.849 3.28-.106 3.278-.265 3.28.265 3.28.424 3.278-.477 3.28.636 3.28.212 3.279-.477 3.279.637 3.28-.266 3.279-.106 3.279.372h3.28l3.279.37 3.279-.317 3.28.159 3.279.212 3.279-.16 3.28.107 3.279.318 3.279-.212 3.28.106 3.279-.053 3.279.212h3.28" fill="none" stroke="#ff7f0e" stroke-linecap="square" stroke-width="1.5" id="line2d_13"/><path d="M57.6 307.584V41.472" fill="none" stroke="#000" stroke-linecap="square" stroke-width=".8" id="patch_3"/><path d="M414.72 307.584V41.472" fill="none" stroke="#000" stroke-linecap="square" stroke-width=".8" id="patch_4"/><path d="M57.6 307.584h357.12" fill="none" stroke="#000" stroke-linecap="square" stroke-width=".8" id="patch_5"/><path d="M57.6 41.472h357.12" fill="none" stroke="#000" stroke-linecap="square" stroke-width=".8" id="patch_6"/><text x="236.16" y="35.472" font-family="DejaVu Sans" font-size="12" font-weight="400" text-anchor="middle" id="text_14">Coin Flips for pow(x,4/5)</text><g id="legend_1"><path d="M219.784 78.828H407.72q2 0 2-2V48.472q0-2-2-2H219.784q-2 0-2 2v28.356q0 2 2 2z" fill="#fff" opacity=".8" stroke="#ccc" id="patch_7"/><path d="M221.784 54.57h20" fill="none" stroke="#1f77b4" stroke-linecap="square" stroke-width="1.5" id="line2d_14"/><text x="249.784" y="58.07" font-family="DejaVu Sans" font-size="10" font-weight="400" id="text_15">Coin Flip Lower Bound (Mendo)</text><path d="M221.784 69.249h20" fill="none" stroke="#ff7f0e" stroke-linecap="square" stroke-width="1.5" id="line2d_16"/><text x="249.784" y="72.749" font-family="DejaVu Sans" font-size="10" font-weight="400" id="text_16">Avg. Coins Flipped pow(x,4/5)</text></g></g></g><defs><clipPath id="pe1c885666f"><path d="M57.6 41.472h357.12v266.112H57.6z"/></clipPath></defs></svg>
